icons/desktop/16/svg/show-password-slash-16.svg

<svg width="16" height="16" viewBox="0 0 16 16" fill="none" xmlns="http://www.w3.org/2000/svg">
<path fill-rule="evenodd" clip-rule="evenodd" d="M1.22161 0.219751C1.51461 -0.0732494 1.98818 -0.0722728 2.28118 0.220727L4.72454 2.66409C4.72739 2.66291 4.73049 2.66233 4.73333 2.66116L5.90228 3.8301C5.89933 3.83102 5.89643 3.83211 5.89349 3.83303L7.38568 5.32522C7.3886 5.32455 7.39154 5.32393 7.39446 5.32327L10.6786 8.60745C10.678 8.61013 10.6763 8.61257 10.6757 8.61526L12.7275 10.667C12.7294 10.6653 12.7314 10.6638 12.7333 10.6621L13.7939 11.7227C13.792 11.7244 13.7899 11.7259 13.788 11.7276L15.7812 13.7207C16.0741 14.0137 16.0742 14.4883 15.7812 14.7813C15.6353 14.9271 15.4437 15.0009 15.2519 15.001C15.0599 15.001 14.8676 14.9272 14.7216 14.7803L12.5878 12.6465C11.2363 13.5121 9.65992 14.0009 8.00189 14.001C4.77789 14.001 1.83141 12.1923 0.31341 9.2803C-0.10453 8.47941 -0.10441 7.52263 0.31341 6.7217C1.0369 5.33378 2.08699 4.20175 3.33587 3.39456L1.22161 1.2803C0.928666 0.98735 0.928772 0.512763 1.22161 0.219751ZM4.42571 4.4844C3.27011 5.16016 2.2974 6.16104 1.64447 7.41409C1.45351 7.78101 1.45359 8.21901 1.64447 8.58596C2.90247 11 5.33889 12.5 8.00189 12.5C9.25291 12.4999 10.4483 12.1617 11.498 11.5567L9.91204 9.97073C9.41798 10.4521 8.74508 10.7499 8.00189 10.75C6.48489 10.75 5.25189 9.51702 5.25189 8.00002C5.25195 7.25675 5.54866 6.5829 6.03021 6.08889L4.42571 4.4844ZM7.0888 7.14748C6.87982 7.37098 6.75195 7.67081 6.75189 8.00002C6.75189 8.68902 7.31289 9.25002 8.00189 9.25002C8.33101 9.24991 8.63 9.12106 8.85345 8.91213L7.0888 7.14748Z" fill="black"/>
<path d="M8.00091 1.99905C11.2247 1.99923 14.1705 3.80887 15.6884 6.72073C16.1062 7.52165 16.1063 8.47844 15.6884 9.27932C15.3974 9.8373 15.0403 10.3405 14.6523 10.8125L13.5888 9.74807C13.8737 9.38716 14.1394 9.00584 14.3583 8.58596C14.5492 8.219 14.5493 7.78102 14.3583 7.41409C13.1004 5.00033 10.6646 3.5002 8.00189 3.50002C7.79399 3.50002 7.5896 3.52499 7.3847 3.54299L6.07806 2.23733C6.70206 2.09233 7.34391 1.99905 8.00091 1.99905Z" fill="black"/>
</svg>

<!-- This Source Code Form is subject to the terms of the Mozilla Public
   - License, v. 2.0. If a copy of the MPL was not distributed with this
   - file, You can obtain one at http://mozilla.org/MPL/2.0/. -->
<svg xmlns="http://www.w3.org/2000/svg" width="16" height="16" fill="context-fill" fill-opacity="context-fill-opacity" viewBox="0 0 16 16">
    <path fill-rule="evenodd" d="M1.222.22a.75.75 0 0 1 1.06 0l2.443 2.444.008-.003 1.17 1.17-.01.002 1.493 1.492.008-.002 3.285 3.284-.003.008 2.051 2.052.006-.005 1.06 1.06-.005.006 1.993 1.993a.75.75 0 1 1-1.06 1.06l-2.133-2.135a8.5 8.5 0 0 1-4.586 1.355c-3.224 0-6.17-1.809-7.689-4.72a2.77 2.77 0 0 1 0-2.56 8.8 8.8 0 0 1 3.023-3.326L1.222 1.28a.75.75 0 0 1 0-1.06m3.204 4.264a7.3 7.3 0 0 0-2.782 2.93 1.27 1.27 0 0 0 0 1.172C2.902 11 5.34 12.5 8.002 12.5a7 7 0 0 0 3.496-.943L9.912 9.97a2.73 2.73 0 0 1-1.91.779A2.75 2.75 0 0 1 5.252 8c0-.743.297-1.417.778-1.911zm2.663 2.663a1.252 1.252 0 0 0 .913 2.103c.329 0 .628-.129.851-.338z" clip-rule="evenodd" />
    <path d="M8 1.999c3.225 0 6.17 1.81 7.688 4.722.418.8.418 1.757 0 2.558a9 9 0 0 1-1.036 1.534L13.59 9.748c.285-.36.55-.742.77-1.162a1.27 1.27 0 0 0 0-1.172C13.1 5 10.664 3.5 8.001 3.5c-.208 0-.412.025-.617.043L6.078 2.237A8.5 8.5 0 0 1 8.001 2" />
</svg>
